X:213
T: Himmelfahrt
N: A0566
O: Europa, Mitteleuropa, Deutschland
N: Walasser Kath. Gsgb 1561 fol. 180.
R: Romanze, Ballade, Lied, religioeses Lied
M: 4/1
L: 1/2
K: D
 |  | A4G2A2 | =c2d2A2z
A | A2G2A2=F2 | E2=F2D2z
D | G2G2D2=C2 | =F2G2A2z
A | A2G2A2=F2 | E2=F2D2E2 | =CDE2 | D4

@@@ Tune index: 526
